24x24/actions/tag-delete.svg

<svg viewBox="0 0 24 24" xmlns="http://www.w3.org/2000/svg"><path d="m10 4-6 2 2 6 8 4v-2h3.5l2.5-5zm-6 2v6l8 8 2.705-2.705-9.705-5.295zm3.5 0c.831 0 1.5.669 1.5 1.5s-.669 1.5-1.5 1.5-1.5-.669-1.5-1.5.669-1.5 1.5-1.5z" fill="#8b9cbe"/><path d="m15.834 15-.834.834 1.666 1.666-1.666 1.666.834.834 1.666-1.666 1.666 1.666.834-.834-1.666-1.666 1.666-1.666-.834-.834-1.666 1.666z" fill="#da4453"/></svg>

<svg xmlns="http://www.w3.org/2000/svg" viewBox="0 0 24 24"><path style="fill:currentColor;fill-opacity:1;stroke:none;color:#8b9cbe" d="M10 4 4 6l2 6 8 4v-2h3.5L20 9 10 4zM4 6v6l8 8 2.705-2.705L5 12 4 6zm3.5 0C8.331 6 9 6.669 9 7.5S8.331 9 7.5 9 6 8.331 6 7.5 6.669 6 7.5 6z"/><path style="fill:currentColor;fill-opacity:1;stroke:none;color:#da4453" d="m15.834 15-.834.834 1.666 1.666L15 19.166l.834.834 1.666-1.666L19.166 20l.834-.834-1.666-1.666L20 15.834 19.166 15 17.5 16.666 15.834 15z"/></svg>
